contributed-vectors/xeonjia.svg

<?xml version="1.0" encoding="UTF-8" standalone="no"?>
<svg
   xmlns:dc="http://purl.org/dc/elements/1.1/"
   xmlns:cc="http://creativecommons.org/ns#"
   xmlns:rdf="http://www.w3.org/1999/02/22-rdf-syntax-ns#"
   xmlns:svg="http://www.w3.org/2000/svg"
   xmlns="http://www.w3.org/2000/svg"
   xmlns:sodipodi="http://sodipodi.sourceforge.net/DTD/sodipodi-0.dtd"
   xmlns:inkscape="http://www.inkscape.org/namespaces/inkscape"
   width="192"
   height="192"
   version="1.1"
   viewBox="0 0 192 192"
   id="svg14"
   sodipodi:docname="xeonija1.svg"
   inkscape:version="0.92.5 (2060ec1f9f, 2020-04-08)">
  <metadata
     id="metadata20">
    <rdf:RDF>
      <cc:Work
         rdf:about="">
        <dc:format>image/svg+xml</dc:format>
        <dc:type
           rdf:resource="http://purl.org/dc/dcmitype/StillImage" />
        <dc:title></dc:title>
      </cc:Work>
    </rdf:RDF>
  </metadata>
  <defs
     id="defs18" />
  <sodipodi:namedview
     pagecolor="#ffffff"
     bordercolor="#666666"
     borderopacity="1"
     objecttolerance="10"
     gridtolerance="10"
     guidetolerance="10"
     inkscape:pageopacity="0"
     inkscape:pageshadow="2"
     inkscape:window-width="1280"
     inkscape:window-height="745"
     id="namedview16"
     showgrid="false"
     inkscape:zoom="1.2291667"
     inkscape:cx="-50.847458"
     inkscape:cy="96"
     inkscape:window-x="-12"
     inkscape:window-y="-2"
     inkscape:window-maximized="1"
     inkscape:current-layer="svg14" />
  <circle
     style="opacity:1;fill:#54688c;stroke-width:4"
     id="circle4-3"
     cy="96"
     cx="96"
     r="88" />
  <path
     inkscape:connector-curvature="0"
     style="opacity:1;fill:#ffffff;stroke-width:4"
     d="m 66,60 -3,3 -3,3 10.859376,10 H 60 v 8 H 77.906248 L 86,96 77.906248,108 H 60 v 8 H 70.859376 L 60,126 l 3,3 3,3 10,-10.81252 V 132 h 8 V 113.89064 L 96,106 l 12,7.89064 V 116 132 h 8 V 121.18748 L 126,132 l 3,-3 3,-3 -10.85938,-10 H 132 v -8 H 114.09375 L 106,96 114.09375,84 H 132 V 76 H 121.14062 L 132,66 129,63 126,60 116,70.81248 V 60 h -8 v 16 2.10936 L 96,86 84,78.10936 V 76 60 h -8 v 10.81248 z"
     id="path829" />
</svg>

<svg xmlns="http://www.w3.org/2000/svg" width="192" height="192"><circle cx="96" cy="96" r="88" style="opacity:1;fill:#54688c;stroke-width:4"/><path d="m66 60-3 3-3 3 10.86 10H60v8h17.906L86 96l-8.094 12H60v8h10.86L60 126l3 3 3 3 10-10.813V132h8v-18.11L96 106l12 7.89V132h8v-10.813L126 132l3-3 3-3-10.86-10H132v-8h-17.906L106 96l8.094-12H132v-8h-10.86L132 66l-3-3-3-3-10 10.812V60h-8v18.11L96 86l-12-7.89V60h-8v10.812z" style="opacity:1;fill:#fff;stroke-width:4"/></svg>
